X: 566
P: Longways for as many as will
M: 6/4
L: 1/4
K: Bb
f | f2d f2B | fdB f2d | gfd eGc | _B3 c2f | dBb a2g | fdg f2d | (e/d/)cA fd2 | c3 B2 |]

